icons/file-code-fill.svg

<svg viewBox="0 0 24 24" fill="currentColor" xmlns="http://www.w3.org/2000/svg"><path d="M16 2L21 7V21.0082C21 21.556 20.5551 22 20.0066 22H3.9934C3.44476 22 3 21.5447 3 21.0082V2.9918C3 2.44405 3.44495 2 3.9934 2H16ZM17.6569 12L14.1213 8.46447L12.7071 9.87868L14.8284 12L12.7071 14.1213L14.1213 15.5355L17.6569 12ZM6.34315 12L9.87868 15.5355L11.2929 14.1213L9.17157 12L11.2929 9.87868L9.87868 8.46447L6.34315 12Z"/></svg>

<svg xmlns="http://www.w3.org/2000/svg" viewBox="0 0 24 24">
    <g>
        <path fill="none" d="M0 0h24v24H0z"/>
        <path d="M16 2l5 5v14.008a.993.993 0 0 1-.993.992H3.993A1 1 0 0 1 3 21.008V2.992C3 2.444 3.445 2 3.993 2H16zm1.657 10L14.12 8.464 12.707 9.88 14.828 12l-2.12 2.121 1.413 1.415L17.657 12zM6.343 12l3.536 3.536 1.414-1.415L9.172 12l2.12-2.121L9.88 8.464 6.343 12z"/>
    </g>
</svg>
